tools/download-figma-icons/icons/outlined-medium/security-camera.svg

<svg width="24" height="24" viewBox="0 0 24 24" fill="none" xmlns="http://www.w3.org/2000/svg">
<path fill-rule="evenodd" clip-rule="evenodd" d="M16.0164 12.6769L17.7346 16.4996H22.5V14.9996H19.1558C19.1551 14.9996 19.1543 14.9989 19.1536 14.9989C19.0643 14.9989 18.9788 14.9779 18.8971 14.9479C18.878 14.9406 18.8601 14.932 18.8422 14.9234C18.8363 14.9206 18.8303 14.9177 18.8243 14.9149C18.7673 14.8864 18.7156 14.8504 18.6668 14.8084C18.6599 14.8023 18.6529 14.7966 18.646 14.791C18.6341 14.7814 18.6225 14.772 18.6121 14.7612C18.5551 14.7004 18.5041 14.6314 18.4688 14.5504L18.4651 14.5422L18.4643 14.5414L17.4039 12.1204L16.0164 12.6769ZM11.1489 12.4451C11.2599 12.7159 11.5764 12.8449 11.8464 12.7346L21.468 8.87366C21.609 8.81516 21.678 8.69892 21.7095 8.61117C21.7598 8.47242 21.7538 8.30742 21.693 8.16042L21.3263 7.20419L13.7649 10.2394C13.3824 10.3924 12.9482 10.2101 12.7922 9.8284C12.4194 8.92391 11.3559 8.17992 10.4155 8.56842L9.68122 8.85041L11.1069 12.3424C11.1073 12.3431 11.1077 12.3437 11.1081 12.3442C11.1084 12.3448 11.1088 12.3454 11.1092 12.3461C11.1095 12.3468 11.1096 12.3473 11.1096 12.3478C11.1096 12.3484 11.1095 12.349 11.1099 12.3499L11.1489 12.4451ZM8.28099 9.38896L7.43125 9.71521L8.64849 12.5299L9.43372 12.2127L8.28099 9.38896ZM4.33081 7.76969L5.4363 8.87518L9.86198 7.1742C11.3717 6.55246 12.9812 7.3557 13.8242 8.59993L21.3953 5.56098C21.4069 5.55459 21.4173 5.54673 21.4278 5.53883C21.4432 5.52726 21.4586 5.51561 21.4778 5.50848C21.4935 5.50235 21.5098 5.50082 21.5263 5.49927C21.538 5.49816 21.5499 5.49704 21.5618 5.49423L22.2833 5.20398L21.1313 2.21528C20.8898 1.63029 20.1998 1.34154 19.5991 1.58829L4.33081 7.76969ZM22.5 11.9997C22.5 11.5849 22.8353 11.2497 23.25 11.2497C23.664 11.2497 24 11.5849 24 11.9997V19.4995C24 19.9143 23.664 20.2495 23.25 20.2495C22.8353 20.2495 22.5 19.9143 22.5 19.4995V17.9996H17.2501C16.9546 17.9996 16.6869 17.8271 16.5654 17.5571L14.6236 13.2364L12.4112 14.1244C12.1614 14.2279 11.9027 14.2759 11.6469 14.2759C11.056 14.2759 10.4867 14.0149 10.0982 13.5626L8.53074 14.1956C8.43849 14.2324 8.34399 14.2496 8.25025 14.2496C7.96 14.2496 7.684 14.0794 7.56176 13.7966L6.03028 10.2537L5.51879 10.4502C5.43179 10.4839 5.34029 10.4997 5.25029 10.4997C5.05454 10.4997 4.8633 10.4232 4.7193 10.2799L2.46933 8.02997C2.29159 7.85223 2.21509 7.59723 2.26459 7.35048C2.31484 7.10449 2.48508 6.89899 2.71908 6.80449L19.0328 0.200094C20.3933 -0.359398 21.9623 0.294592 22.5248 1.66107L23.949 5.35552C24.0968 5.73726 23.9093 6.1685 23.529 6.32075L22.7183 6.6455L23.0873 7.60623C23.2845 8.08547 23.298 8.62997 23.1195 9.12346C22.9283 9.64845 22.542 10.0534 22.0313 10.2634L18.7966 11.5617L19.6456 13.4996H22.5V11.9997ZM8.24987 21.7495C4.52768 21.7495 1.49998 18.7218 1.49998 14.9996C1.49998 14.5848 1.16473 14.2496 0.749989 14.2496C0.335245 14.2496 0 14.5848 0 14.9996C0 19.5482 3.70119 23.2494 8.24987 23.2494C8.66462 23.2494 8.99986 22.9142 8.99986 22.4995C8.99986 22.0847 8.66462 21.7495 8.24987 21.7495ZM8.24987 18.7495C6.18216 18.7495 4.49993 17.0673 4.49993 14.9996C4.49993 14.5848 4.16469 14.2496 3.74994 14.2496C3.3352 14.2496 2.99995 14.5848 2.99995 14.9996C2.99995 17.8938 5.35567 20.2495 8.24987 20.2495C8.66462 20.2495 8.99986 19.9142 8.99986 19.4995C8.99986 19.0848 8.66462 18.7495 8.24987 18.7495Z" fill="black"/>
</svg>

<svg width="24" height="24" viewBox="0 0 24 24" fill="none" xmlns="http://www.w3.org/2000/svg"><path fill-rule="evenodd" clip-rule="evenodd" d="m16.016 12.677 1.719 3.823H22.5V15h-3.344l-.002-.001a.743.743 0 0 1-.257-.051c-.019-.007-.037-.016-.055-.025l-.018-.008a.767.767 0 0 1-.178-.124.744.744 0 0 1-.177-.24l-.004-.009-1.061-2.422-1.388.557Zm-4.867-.232c.11.27.427.4.697.29l9.622-3.861a.437.437 0 0 0 .241-.263.633.633 0 0 0-.016-.45l-.367-.957-7.561 3.035a.749.749 0 0 1-.973-.41c-.373-.905-1.436-1.65-2.377-1.26l-.734.281 1.426 3.492.001.002.001.002v.004l.04.095ZM8.28 9.39l-.85.326 1.217 2.815.786-.317L8.28 9.389ZM4.33 7.77l1.105 1.106 4.426-1.7c1.51-.623 3.12.18 3.962 1.425l7.571-3.039c.012-.006.022-.014.033-.022a.166.166 0 0 1 .05-.03c.015-.007.032-.008.048-.01a.149.149 0 0 0 .036-.005l.721-.29-1.152-2.989a1.178 1.178 0 0 0-1.532-.627L4.331 7.77ZM22.5 12a.75.75 0 1 1 1.5 0v7.5a.75.75 0 1 1-1.5 0V18h-5.25a.75.75 0 0 1-.685-.442l-1.941-4.32-2.213.887a1.99 1.99 0 0 1-.764.152 2.05 2.05 0 0 1-1.549-.713l-1.567.633a.753.753 0 0 1-.97-.4l-1.53-3.542-.512.196a.752.752 0 0 1-.8-.17L2.47 8.03a.751.751 0 0 1 .25-1.226L19.033.2c1.36-.56 2.93.095 3.492 1.461l1.424 3.695a.75.75 0 0 1-.42.965l-.81.325.368.96c.198.48.211 1.024.032 1.517a1.93 1.93 0 0 1-1.088 1.14l-3.234 1.299.849 1.938H22.5V12ZM8.25 21.75A6.757 6.757 0 0 1 1.5 15 .75.75 0 1 0 0 15c0 4.55 3.701 8.25 8.25 8.25a.75.75 0 1 0 0-1.5Zm0-3A3.754 3.754 0 0 1 4.5 15 .75.75 0 1 0 3 15a5.257 5.257 0 0 0 5.25 5.25.75.75 0 1 0 0-1.5Z" fill="currentColor"/></svg>
